;FLAVOR:Marlin
;TIME:2892
;Filament used: 1.80817m
;Layer height: 0.15
;Generated with Cura_SteamEngine 4.0.0
M82 ;absolute extrusion mode
G21 ; set units to millimeters
G90 ; use absolute positioning
M82 ; absolute extrusion mode
M104 S230.0 ; set extruder temp
M140 S60 ; set bed temp
M190 S60 ; wait for bed temp
M109 S230.0 ; wait for extruder temp
G28 W ; home all without mesh bed level
G80 ; mesh bed leveling
G92 E0.0 ; reset extruder distance position
G1 Y-3.0 F1000.0 ; go outside print area
G1 X60.0 E9.0 F1000.0 ; intro line
G1 X100.0 E21.5 F1000.0 ; intro line
G92 E0.0 ; reset extruder distance position
G92 E0
G1 F2100 E-0.8
;LAYER_COUNT:89
;LAYER:0
M107
G0 F3600 X80.817 Y16.675 Z0.15
;TYPE:SKIRT
G1 F2100 E0
G1 F1800 X80.944 Y16.186 E0.0126
G1 X81.147 Y15.723 E0.02521
G1 X81.42 Y15.297 E0.03784
G1 X81.757 Y14.92 E0.05045
G1 X82.148 Y14.601 E0.06304
G1 X82.586 Y14.347 E0.07567
G1 X83.058 Y14.165 E0.08829
G1 X83.552 Y14.06 E0.10088
G1 X83.968 Y14.033 E0.11128
G1 X110.613 Y14.034 E0.77595
G1 X111.117 Y14.074 E0.78856
G1 X111.609 Y14.193 E0.80118
G1 X112.075 Y14.388 E0.81379
G1 X112.505 Y14.653 E0.82639
G1 X112.888 Y14.984 E0.83901
G1 X113.214 Y15.37 E0.85162
G1 X113.475 Y15.803 E0.86423
G1 X113.665 Y16.271 E0.87683
G1 X113.759 Y16.65 E0.88657
G1 X114.311 Y19.623 E0.962
G1 X115.553 Y24.995 E1.09954
G1 X117.087 Y30.254 E1.23619
G1 X118.91 Y35.403 E1.37245
G1 X121.024 Y40.446 E1.50885
G1 X123.43 Y45.382 E1.64583
G1 X126.099 Y50.155 E1.78224
G1 X129.036 Y54.77 E1.9187
G1 X132.243 Y59.233 E2.05579
G1 X135.675 Y63.479 E2.19198
G1 X139.361 Y67.546 E2.3289
G1 X141.264 Y69.475 E2.39649
G1 X145.279 Y73.213 E2.53333
G1 X149.487 Y76.707 E2.66977
G1 X153.906 Y79.972 E2.80683
G1 X158.475 Y82.965 E2.94308
G1 X163.218 Y85.702 E3.07968
G1 X168.117 Y88.171 E3.21653
G1 X173.112 Y90.344 E3.35241
G1 X178.262 Y92.246 E3.48936
G1 X183.502 Y93.85 E3.62606
G1 X188.871 Y95.168 E3.76396
G1 X191.489 Y95.691 E3.83056
G1 X196.93 Y96.545 E3.96795
G1 X199.395 Y96.828 E4.02984
G1 X199.891 Y96.925 E4.04245
G1 X200.365 Y97.099 E4.05504
G1 X200.807 Y97.346 E4.06768
G1 X201.203 Y97.659 E4.08027
G1 X201.546 Y98.031 E4.09289
G1 X201.826 Y98.452 E4.1055
G1 X202.036 Y98.912 E4.11812
G1 X202.171 Y99.399 E4.13072
G1 X202.229 Y100.003 E4.14586
G1 X202.24 Y109.987 E4.39491
G1 X202.201 Y110.492 E4.40754
G1 X202.082 Y110.983 E4.42015
G1 X201.888 Y111.45 E4.43276
G1 X201.623 Y111.88 E4.44536
G1 X201.293 Y112.263 E4.45797
G1 X200.907 Y112.59 E4.47059
G1 X200.274 Y112.944 E4.48868
G1 X194.807 Y115.228 E4.63648
G1 X189.884 Y117.627 E4.77309
G1 X185.096 Y120.305 E4.90994
G1 X182.804 Y121.718 E4.97711
G1 X178.243 Y124.805 E5.11449
G1 X173.894 Y128.122 E5.25093
G1 X169.738 Y131.681 E5.38742
G1 X165.774 Y135.484 E5.52445
G1 X162.05 Y139.484 E5.66078
G1 X160.281 Y141.557 E5.72876
G1 X156.896 Y145.877 E5.86567
G1 X153.767 Y150.37 E6.00225
G1 X150.901 Y155.03 E6.13871
G1 X148.295 Y159.857 E6.27555
G1 X145.977 Y164.803 E6.41181
G1 X143.92 Y169.92 E6.54938
G1 X143.031 Y172.447 E6.6162
G1 X141.419 Y177.71 E6.75351
G1 X140.116 Y183.03 E6.89014
G1 X139.479 Y186.241 E6.9718
G1 X139.342 Y186.727 E6.98439
G1 X139.129 Y187.186 E6.99702
G1 X138.848 Y187.606 E7.00962
G1 X138.503 Y187.976 E7.02224
G1 X138.105 Y188.287 E7.03484
G1 X137.662 Y188.532 E7.04747
G1 X137.187 Y188.704 E7.06007
G1 X136.69 Y188.799 E7.07269
G1 X136.34 Y188.818 E7.08144
G1 X116.016 Y188.817 E7.58842
G1 X115.512 Y188.777 E7.60103
G1 X115.02 Y188.658 E7.61366
G1 X114.554 Y188.463 E7.62626
G1 X114.124 Y188.198 E7.63886
G1 X113.741 Y187.867 E7.65149
G1 X113.415 Y187.481 E7.66409
G1 X113.154 Y187.048 E7.6767
G1 X112.906 Y186.369 E7.69474
G1 X112.007 Y182.65 E7.79018
G1 X110.469 Y177.372 E7.92732
G1 X108.645 Y172.219 E8.06367
G1 X106.528 Y167.169 E8.20027
G1 X104.13 Y162.245 E8.33689
G1 X101.453 Y157.458 E8.4737
G1 X98.522 Y152.85 E8.60993
G1 X95.322 Y148.395 E8.74676
G1 X91.884 Y144.141 E8.8832
G1 X88.187 Y140.061 E9.02054
G1 X86.319 Y138.166 E9.08692
G1 X82.269 Y134.395 E9.22496
G1 X78.075 Y130.91 E9.36099
G1 X73.662 Y127.649 E9.49786
G1 X69.073 Y124.642 E9.63472
G1 X64.343 Y121.912 E9.77096
G1 X59.453 Y119.446 E9.90757
G1 X54.451 Y117.27 E10.04364
G1 X49.3 Y115.368 E10.18061
G1 X44.026 Y113.752 E10.31821
G1 X41.484 Y113.089 E10.38374
G1 X41.007 Y112.924 E10.39633
G1 X40.561 Y112.685 E10.40896
G1 X40.159 Y112.378 E10.42157
G1 X39.81 Y112.013 E10.43417
G1 X39.523 Y111.597 E10.44678
G1 X39.305 Y111.141 E10.45939
G1 X39.161 Y110.656 E10.47201
G1 X39.092 Y109.993 E10.48864
G1 X39.092 Y100.009 E10.73769
G1 X39.132 Y99.505 E10.7503
G1 X39.251 Y99.014 E10.7629
G1 X39.445 Y98.547 E10.77552
G1 X39.711 Y98.117 E10.78813
G1 X40.041 Y97.734 E10.80074
G1 X40.385 Y97.44 E10.81203
G1 X42.654 Y95.756 E10.88251
G1 X46.952 Y92.278 E11.02043
G1 X51.021 Y88.587 E11.15747
G1 X52.926 Y86.706 E11.22426
G1 X56.675 Y82.674 E11.36159
G1 X60.172 Y78.461 E11.49818
G1 X63.425 Y74.055 E11.63479
G1 X66.421 Y69.476 E11.77129
G1 X69.163 Y64.718 E11.90828
G1 X71.618 Y59.84 E12.04451
G1 X73.792 Y54.838 E12.18056
G1 X75.696 Y49.669 E12.31797
G1 X77.292 Y44.449 E12.45413
G1 X78.609 Y39.074 E12.59218
G1 X79.126 Y36.476 E12.65825
G1 X79.98 Y31.017 E12.79609
G1 X80.519 Y25.572 E12.93258
G1 X80.671 Y22.875 E12.99996
G1 X80.768 Y17.178 E13.14209
G1 X80.817 Y16.675 E13.1547
G1 F2100 E12.3547
;MESH:dc8d3dfd-075b-469d-a3fe-52983a4ef6db.stl(4)
G0 F3600 X83.293 Y17.838
G0 X84.572 Y17.838
G0 X85.445 Y32.148
G0 X85.763 Y33.713
G0 X86.287 Y35.22
G0 X87.007 Y36.646
G0 X87.91 Y37.962
G0 X88.982 Y39.147
G0 X90.201 Y40.177
G0 X91.546 Y41.036
G0 X92.994 Y41.709
G0 X94.52 Y42.181
G0 X96.095 Y42.447
G0 X97.689 Y42.5
G0 X99.277 Y42.341
G0 X101.607 Y41.765
G0 X101.572 Y41.672
;TYPE:WALL-INNER
G1 F2100 E13.1547
G1 F1800 X102.305 Y41.36 E13.17457
G1 X103.014 Y41.001 E13.1944
G1 X103.7 Y40.596 E13.21427
G1 X104.357 Y40.145 E13.23415
G1 X104.98 Y39.653 E13.25395
G1 X105.571 Y39.119 E13.27382
G1 X106.125 Y38.545 E13.29372
G1 X106.639 Y37.938 E13.31356
G1 X107.111 Y37.296 E13.33344
G1 X107.539 Y36.626 E13.35327
G1 X107.922 Y35.928 E13.37313
G1 X108.257 Y35.205 E13.39301
G1 X108.543 Y34.463 E13.41284
G1 X108.779 Y33.703 E13.43269
G1 X108.963 Y32.928 E13.45256
G1 X109.096 Y32.144 E13.4724
G1 X109.176 Y31.351 E13.49228
G1 X109.202 Y30.555 E13.51215
G1 X109.176 Y29.76 E13.53199
G1 X109.096 Y28.966 E13.5519
G1 X108.963 Y28.182 E13.57173
G1 X108.779 Y27.408 E13.59158
G1 X108.543 Y26.647 E13.61146
G1 X108.257 Y25.905 E13.63129
G1 X107.922 Y25.182 E13.65117
G1 X107.539 Y24.484 E13.67103
G1 X107.111 Y23.814 E13.69086
G1 X106.639 Y23.172 E13.71074
G1 X106.125 Y22.564 E13.7306
G1 X105.571 Y21.992 E13.75046
G1 X104.98 Y21.458 E13.77033
G1 X104.357 Y20.965 E13.79015
G1 X103.7 Y20.514 E13.81003
G1 X103.014 Y20.109 E13.8299
G1 X102.305 Y19.749 E13.84974
G1 X101.572 Y19.438 E13.8696
G1 X100.819 Y19.178 E13.88947
G1 X100.051 Y18.967 E13.90934
G1 X99.27 Y18.808 E13.92922
G1 X98.482 Y18.703 E13.94905
G1 X97.689 Y18.649 E13.96888
G1 X96.891 Y18.649 E13.98878
G1 X96.098 Y18.703 E14.00861
G1 X95.309 Y18.808 E14.02847
G1 X94.529 Y18.967 E14.04832
G1 X93.76 Y19.178 E14.06822
G1 X93.008 Y19.438 E14.08806
G1 X92.275 Y19.749 E14.10793
G1 X91.565 Y20.109 E14.12778
G1 X90.88 Y20.514 E14.14763
G1 X90.223 Y20.965 E14.16751
G1 X89.599 Y21.458 E14.18735
G1 X89.009 Y21.992 E14.2072
G1 X88.455 Y22.564 E14.22707
G1 X87.941 Y23.172 E14.24693
G1 X87.469 Y23.814 E14.2668
G1 X87.041 Y24.484 E14.28664
G1 X86.658 Y25.182 E14.3065
G1 X86.323 Y25.905 E14.32637
G1 X86.037 Y26.647 E14.34621
G1 X85.801 Y27.408 E14.36608
G1 X85.616 Y28.182 E14.38594
G1 X85.484 Y28.967 E14.40579
G1 X85.404 Y29.76 E14.42567
G1 X85.378 Y30.555 E14.44552
G1 X85.404 Y31.351 E14.46538
G1 X85.484 Y32.143 E14.48524
G1 X85.616 Y32.928 E14.5051
G1 X85.801 Y33.703 E14.52497
G1 X86.037 Y34.463 E14.54482
G1 X86.323 Y35.205 E14.56466
G1 X86.658 Y35.928 E14.58454
G1 X87.041 Y36.626 E14.6044
G1 X87.469 Y37.296 E14.62423
G1 X87.941 Y37.938 E14.64411
G1 X88.455 Y38.545 E14.66395
G1 X89.009 Y39.119 E14.68385
G1 X89.599 Y39.653 E14.7037
G1 X90.224 Y40.145 E14.72354
G1 X90.88 Y40.596 E14.7434
G1 X91.565 Y41.001 E14.76325
G1 X92.275 Y41.36 E14.7831
G1 X93.008 Y41.672 E14.80297
G1 X93.761 Y41.933 E14.82285
G1 X94.529 Y42.143 E14.84271
G1 X95.308 Y42.302 E14.86254
G1 X96.098 Y42.408 E14.88243
G1 X96.892 Y42.461 E14.90228
G1 X97.688 Y42.461 E14.92213
G1 X98.482 Y42.408 E14.94198
G1 X99.271 Y42.302 E14.96184
G1 X100.051 Y42.143 E14.9817
G1 X100.818 Y41.933 E15.00154
G1 X101.572 Y41.672 E15.02144
G0 F3600 X101.607 Y41.765
G0 X109.952 Y43.217
G0 X110.022 Y43.287
G1 F1800 X84.558 Y43.287 E15.65664
G1 X84.558 Y17.824 E16.29182
G1 X110.022 Y17.824 E16.92702
G1 X110.022 Y43.287 E17.5622
G0 F3600 X110.422 Y43.687
;TYPE:WALL-OUTER
G1 F1800 X84.158 Y43.687 E18.21736
G1 X84.158 Y17.424 E18.87249
G1 X110.422 Y17.424 E19.52765
G1 X110.422 Y43.687 E20.18278
G0 F3600 X110.222 Y43.687
G0 X109.952 Y43.217
G0 X101.622 Y41.759
G0 X101.428 Y41.299
G1 F1800 X102.136 Y40.997 E20.20198
G1 X102.822 Y40.65 E20.22116
G1 X103.485 Y40.259 E20.24036
G1 X104.119 Y39.823 E20.25955
G1 X104.722 Y39.347 E20.27872
G1 X105.293 Y38.831 E20.29791
G1 X105.828 Y38.277 E20.31713
G1 X106.325 Y37.69 E20.33631
G1 X106.781 Y37.07 E20.35551
G1 X107.195 Y36.422 E20.37469
G1 X107.565 Y35.747 E20.39389
G1 X107.889 Y35.049 E20.41309
G1 X108.165 Y34.332 E20.43226
G1 X108.393 Y33.597 E20.45145
G1 X108.571 Y32.848 E20.47066
G1 X108.699 Y32.09 E20.48983
G1 X108.777 Y31.324 E20.50904
G1 X108.802 Y30.555 E20.52823
G1 X108.777 Y29.787 E20.5474
G1 X108.699 Y29.02 E20.56663
G1 X108.571 Y28.262 E20.58581
G1 X108.393 Y27.514 E20.60499
G1 X108.165 Y26.778 E20.62421
G1 X107.889 Y26.061 E20.64337
G1 X107.565 Y25.363 E20.66257
G1 X107.195 Y24.688 E20.68177
G1 X106.781 Y24.04 E20.70095
G1 X106.325 Y23.42 E20.72015
G1 X105.828 Y22.833 E20.73934
G1 X105.293 Y22.28 E20.75853
G1 X104.722 Y21.764 E20.77773
G1 X104.119 Y21.287 E20.79691
G1 X103.485 Y20.851 E20.8161
G1 X102.822 Y20.46 E20.8353
G1 X102.136 Y20.112 E20.85449
G1 X101.428 Y19.812 E20.87367
G1 X100.7 Y19.56 E20.89289
G1 X99.958 Y19.356 E20.91209
G1 X99.204 Y19.203 E20.93128
G1 X98.442 Y19.101 E20.95046
G1 X97.675 Y19.049 E20.96963
G1 X96.905 Y19.049 E20.98884
G1 X96.138 Y19.101 E21.00802
G1 X95.375 Y19.203 E21.02722
G1 X94.622 Y19.356 E21.04639
G1 X93.879 Y19.56 E21.06561
G1 X93.152 Y19.812 E21.0848
G1 X92.444 Y20.112 E21.10398
G1 X91.757 Y20.46 E21.12319
G1 X91.095 Y20.851 E21.14237
G1 X90.461 Y21.287 E21.16157
G1 X89.857 Y21.764 E21.18076
G1 X89.287 Y22.28 E21.19994
G1 X88.752 Y22.833 E21.21914
G1 X88.255 Y23.42 E21.23832
G1 X87.799 Y24.04 E21.25752
G1 X87.385 Y24.688 E21.2767
G1 X87.015 Y25.363 E21.29591
G1 X86.691 Y26.061 E21.3151
G1 X86.415 Y26.778 E21.33427
G1 X86.187 Y27.514 E21.35349
G1 X86.008 Y28.262 E21.37267
G1 X85.881 Y29.02 E21.39184
G1 X85.803 Y29.787 E21.41108
G1 X85.778 Y30.555 E21.43024
G1 X85.803 Y31.324 E21.44944
G1 X85.881 Y32.09 E21.46864
G1 X86.008 Y32.848 E21.48782
G1 X86.187 Y33.597 E21.50703
G1 X86.415 Y34.332 E21.52622
G1 X86.691 Y35.049 E21.54539
G1 X87.015 Y35.747 E21.56458
G1 X87.385 Y36.422 E21.58379
G1 X87.799 Y37.07 E21.60297
G1 X88.255 Y37.69 E21.62217
G1 X88.752 Y38.277 E21.64135
G1 X89.287 Y38.831 E21.66056
G1 X89.857 Y39.347 E21.67974
G1 X90.461 Y39.823 E21.69893
G1 X91.095 Y40.259 E21.71812
G1 X91.757 Y40.65 E21.7373
G1 X92.444 Y40.997 E21.7565
G1 X93.152 Y41.299 E21.7757
G1 X93.879 Y41.551 E21.79489
G1 X94.622 Y41.754 E21.81411
G1 X95.375 Y41.907 E21.83327
G1 X96.138 Y42.01 E21.85248
G1 X96.905 Y42.061 E21.87165
G1 X97.675 Y42.061 E21.89086
G1 X98.442 Y42.01 E21.91004
G1 X99.204 Y41.907 E21.92922
G1 X99.958 Y41.754 E21.94841
G1 X100.7 Y41.551 E21.9676
G1 X101.428 Y41.299 E21.98682
G0 F3600 X101.612 Y41.221
G0 X101.712 Y42.036
;TYPE:SKIN
G1 F1800 X102.469 Y41.713 E22.00735
G1 X103.201 Y41.344 E22.0278
G1 X103.91 Y40.925 E22.04834
G1 X104.589 Y40.459 E22.06888
G1 X105.232 Y39.951 E22.08932
G1 X105.842 Y39.4 E22.10983
G1 X106.414 Y38.806 E22.1304
G1 X106.945 Y38.18 E22.15088
G1 X107.433 Y37.517 E22.17141
G1 X107.875 Y36.825 E22.1919
G1 X108.271 Y36.104 E22.21242
G1 X108.616 Y35.357 E22.23294
G1 X108.912 Y34.591 E22.25343
G1 X109.155 Y33.806 E22.27392
G1 X109.345 Y33.006 E22.29444
G1 X109.482 Y32.196 E22.31493
G1 X109.566 Y31.377 E22.33546
G1 X109.592 Y30.555 E22.35598
G1 X109.566 Y29.734 E22.37647
G1 X109.482 Y28.914 E22.39703
G1 X109.345 Y28.104 E22.41752
G1 X109.155 Y27.305 E22.43801
G1 X108.912 Y26.519 E22.45853
G1 X108.616 Y25.753 E22.47902
G1 X108.271 Y25.006 E22.49954
G1 X107.875 Y24.285 E22.52006
G1 X107.433 Y23.593 E22.54055
G1 X106.945 Y22.93 E22.56108
G1 X106.414 Y22.302 E22.5816
G1 X105.842 Y21.711 E22.60211
G1 X105.232 Y21.16 E22.62262
G1 X104.589 Y20.651 E22.64308
G1 X103.91 Y20.185 E22.66362
G1 X103.201 Y19.767 E22.68415
G1 X102.469 Y19.396 E22.70462
G1 X101.712 Y19.074 E22.72514
G1 X100.934 Y18.805 E22.74568
G1 X100.141 Y18.587 E22.76619
G1 X99.334 Y18.424 E22.78673
G1 X98.521 Y18.315 E22.80719
G1 X97.702 Y18.259 E22.82767
G1 X96.878 Y18.259 E22.84822
G1 X96.059 Y18.315 E22.8687
G1 X95.244 Y18.424 E22.88921
G1 X94.439 Y18.587 E22.9097
G1 X93.645 Y18.805 E22.93024
G1 X92.868 Y19.074 E22.95075
G1 X92.111 Y19.396 E22.97127
G1 X91.378 Y19.767 E22.99177
G1 X90.67 Y20.185 E23.01228
G1 X89.991 Y20.651 E23.03282
G1 X89.347 Y21.16 E23.05329
G1 X88.738 Y21.711 E23.07378
G1 X88.166 Y22.302 E23.0943
G1 X87.635 Y22.93 E23.11481
G1 X87.147 Y23.593 E23.13535
G1 X86.705 Y24.285 E23.15583
G1 X86.309 Y25.006 E23.17635
G1 X85.964 Y25.753 E23.19688
G1 X85.668 Y26.519 E23.21736
G1 X85.425 Y27.305 E23.23788
G1 X85.234 Y28.104 E23.25838
G1 X85.098 Y28.915 E23.27889
G1 X85.014 Y29.734 E23.29943
G1 X84.988 Y30.555 E23.31992
G1 X85.014 Y31.377 E23.34043
G1 X85.098 Y32.195 E23.36094
G1 X85.234 Y33.006 E23.38146
G1 X85.425 Y33.806 E23.40197
G1 X85.668 Y34.591 E23.42247
G1 X85.964 Y35.357 E23.44296
G1 X86.309 Y36.104 E23.46348
G1 X86.705 Y36.825 E23.484
G1 X87.147 Y37.517 E23.50449
G1 X87.635 Y38.18 E23.52502
G1 X88.166 Y38.806 E23.5455
G1 X88.738 Y39.4 E23.56607
G1 X89.347 Y39.951 E23.58656
G1 X89.992 Y40.459 E23.60704
G1 X90.67 Y40.925 E23.62756
G1 X91.378 Y41.344 E23.64808
G1 X92.111 Y41.713 E23.66855
G1 X92.868 Y42.036 E23.68908
G1 X93.646 Y42.306 E23.70962
G1 X94.439 Y42.523 E23.73013
G1 X95.243 Y42.686 E23.7506
G1 X96.059 Y42.796 E23.77114
G1 X96.879 Y42.851 E23.79164
G1 X97.701 Y42.851 E23.81214
G1 X98.521 Y42.796 E23.83264
G1 X99.336 Y42.686 E23.85316
G1 X100.141 Y42.523 E23.87365
G1 X100.933 Y42.306 E23.89413
G1 X101.712 Y42.036 E23.9147
G0 F3600 X109.632 Y42.897
G1 F1800 X84.948 Y42.897 E24.53044
G1 X84.948 Y18.214 E25.14616
G1 X109.632 Y18.214 E25.76191
G1 X109.632 Y42.897 E26.37763
G0 F3600 X109.45 Y18.941
G1 F1800 X108.903 Y18.393 E26.39694
G0 F3600 X108.337 Y18.393
G1 F1800 X109.45 Y19.506 E26.43621
G0 F3600 X109.45 Y20.072
G1 F1800 X107.772 Y18.393 E26.49542
G0 F3600 X107.206 Y18.393
G1 F1800 X109.45 Y20.638 E26.5746
G0 F3600 X109.45 Y21.204
G1 F1800 X106.64 Y18.393 E26.67375
G0 F3600 X106.075 Y18.393
G1 F1800 X109.45 Y21.769 E26.79283
G0 F3600 X109.45 Y22.335
G1 F1800 X105.509 Y18.393 E26.93187
G0 F3600 X104.943 Y18.393
G1 F1800 X109.45 Y22.901 E27.09089
G0 F3600 X109.45 Y23.466
G1 F1800 X104.378 Y18.393 E27.26984
G0 F3600 X103.812 Y18.393
G1 F1800 X109.45 Y24.032 E27.46875
G0 F3600 X109.45 Y24.598
G1 F1800 X103.246 Y18.393 E27.68763
G0 F3600 X102.681 Y18.393
G1 F1800 X105.163 Y20.876 E27.77521
G1 X105.233 Y20.946
G0 F3600 X103.393 Y19.671
G1 F1800 X102.115 Y18.393 E27.82029
G0 F3600 X101.549 Y18.393
G1 F1800 X102.273 Y19.118 E27.84585
G1 X102.343 Y19.188
G0 F3600 X101.348 Y18.758
G1 F1800 X100.984 Y18.393 E27.85871
G0 F3600 X100.532 Y18.508
G1 F1800 X100.418 Y18.393 E27.86275
G0 F3600 X94.253 Y18.451
G1 F1800 X94.195 Y18.393 E27.86479
G0 F3600 X93.809 Y18.572
G1 F1800 X93.63 Y18.393 E27.87111
G0 F3600 X93.376 Y18.706
G1 F1800 X93.064 Y18.393 E27.88213
G0 F3600 X92.956 Y18.852
G1 F1800 X92.498 Y18.393 E27.89831
G0 F3600 X91.933 Y18.393
G1 F1800 X92.551 Y19.012 E27.92013
G0 F3600 X92.155 Y19.181
G1 F1800 X91.367 Y18.393 E27.94793
G0 F3600 X90.801 Y18.393
G1 F1800 X91.773 Y19.365 E27.98222
